.local/share/icons/Gruvbox-Plus-Dark/panel/24/pomodoneapp-break.svg

<svg xmlns="http://www.w3.org/2000/svg" width="24" height="24" version="1.1">
 <defs>
  <style id="current-color-scheme" type="text/css">
   .ColorScheme-Text { color:#ebdbb2; } .ColorScheme-Highlight { color:#458588; }
  </style>
 </defs>
 <path style="fill:currentColor" class="ColorScheme-Text" d="m 12,4 c -4.4182781,-10e-8 -8.0000001,3.5817219 -8,8 0,4.418278 3.581722,8 8,8 4.418278,0 8,-3.581722 8,-8 C 20,7.5817219 16.418278,4 12,4 Z M 9.5,8 h 5 C 15.331,8 16,8.669 16,9.5 v 5 c 0,0.831 -0.669,1.5 -1.5,1.5 h -5 C 8.669,16 8,15.331 8,14.5 v -5 C 8,8.669 8.669,8 9.5,8 Z m 1.085938,1.378906 c -0.12781,0 -0.255582,0.04855 -0.353516,0.146485 l -0.7070314,0.707031 c -0.1958686,0.195869 -0.1958686,0.511163 0,0.707031 L 10.585938,12 9.5253906,13.060547 c -0.1958686,0.195868 -0.1958686,0.511163 0,0.707031 l 0.7070314,0.707031 c 0.195869,0.195869 0.511163,0.195869 0.707031,0 L 12,13.414062 l 1.060547,1.060547 c 0.195868,0.195869 0.511163,0.195869 0.707031,0 l 0.707031,-0.707031 c 0.195869,-0.195868 0.195869,-0.511163 0,-0.707031 L 13.414062,12 14.474609,10.939453 c 0.195869,-0.195869 0.195869,-0.511163 0,-0.707031 L 13.767578,9.525391 c -0.195868,-0.195869 -0.511163,-0.195869 -0.707031,0 L 12,10.585938 10.939453,9.525391 C 10.841523,9.427451 10.713747,9.378906 10.585938,9.378906 Z"/>
</svg>

<svg width="24" height="24" version="1.1" xmlns="http://www.w3.org/2000/svg">
  <defs>
    <style id="current-color-scheme" type="text/css">.ColorScheme-Text { color:#ebdbb2; } .ColorScheme-Highlight { color:#458588; } .ColorScheme-NeutralText { color:#fe8019; } .ColorScheme-PositiveText { color:#689d6a; } .ColorScheme-NegativeText { color:#fb4934; }</style>
  </defs>
  <path class="ColorScheme-Text" d="m12 4c-4.418-1e-7 -8 3.582-8 8 0 4.418 3.582 8 8 8s8-3.582 8-8c0-4.418-3.582-8-8-8zm-2.5 4h5c0.831 0 1.5 0.669 1.5 1.5v5c0 0.831-0.669 1.5-1.5 1.5h-5c-0.831 0-1.5-0.669-1.5-1.5v-5c0-0.831 0.669-1.5 1.5-1.5zm1.086 1.379c-0.1278 0-0.2556 0.04855-0.3535 0.1465l-0.707 0.707c-0.1959 0.1959-0.1959 0.5112 0 0.707l1.061 1.061-1.061 1.061c-0.1959 0.1959-0.1959 0.5112 0 0.707l0.707 0.707c0.1959 0.1959 0.5112 0.1959 0.707 0l1.061-1.061 1.061 1.061c0.1959 0.1959 0.5112 0.1959 0.707 0l0.707-0.707c0.1959-0.1959 0.1959-0.5112 0-0.707l-1.061-1.061 1.061-1.061c0.1959-0.1959 0.1959-0.5112 0-0.707l-0.707-0.707c-0.1959-0.1959-0.5112-0.1959-0.707 0l-1.061 1.061-1.061-1.061c-0.09793-0.09794-0.2257-0.1465-0.3535-0.1465z" fill="currentColor"/>
</svg>
